X: 29
T: No_36_Song_Concerning_Laguna_Lake.krn
N: Derived from No_36_Song_Concerning_Laguna_Lake.krn
%%abc-version 2.0
%%abcx-abcm2ps-target-version 5.9.1 (29 Sep 2008)
%%abc-creator hum2abc beta
%%abcx-conversion-date 2019/03/15 08:25:35
%%humdrum-veritas 3427017531
%%humdrum-veritas-data 1773132654
%%linebreak <none>
%%barnumbers 0
L: 1/8
M: 3/4
K: Db clef=bass
[K:clef=bass][M:3/4]A,3/A,/ A,3/A,/ A,3/A,/ ]|:  
E3/E/ (3EDE D3/D/ | 
[M:2/4]E3/E/ E3/E/ | 
(3EDA, A,3/A,/ | 
D3/A,/ A,3/A,/ | 
A,3/F,/ A,3/A,/ | 
D3/D/ (3DA,A, | 
A,3/A,/ A,3/A,/ | 
(3A,A,A, A,3/A,/ | 
[M:5/8](3A,A,A, A,3/A,/A, | 
[M:2/4](3DA,A, A, z | 
D3/D/ (3DA,A, | 
A,3/A,/ A,3/A,/ | 
A,3/A,/ (3A,A,A, | 
[M:3/4](3A,A,A, (3A,A,A, A, z | 
A,3/A,/ A,3/D/ A,/A,/ z | 
[M:2/4]A,3/A,/ A,3/A,/ | 
A,3/A,/ A, z | 
[M:3/4]D3/A,/ A,3/A,/ (3B,A,A, :|]  
[M:2/4]D3/A,/ A,3/A,/ | 
[M:5/8](3B,A,A, A, z A, | 
[M:2/4]!fermata!D3F | 
[M:3/4](3DDA, A,3/A,/A,2 | 
[M:2/4]B,3/A,/ (3A,A,A, | 
[M:3/4]A,3/B,/ A,3/F,/ A, z | 
[M:2/4]A,3/D/ D3/E/ | 
(3DDA, A,3/A,/ | 
[M:3/4]A,3/A,/ (3A,A,A, A,3/A,/ | 
A,3/A,/ A,3/F,/ A, z | 
[M:2/4]A,3/D/ D3/E/ | 
(3DDA, A,3/A,/ | 
[M:3/4]A,3/A,/ (3A,A,A, A,3/A,/ | 
A,3/A,/ A,3/F,/ A, z | 
[M:2/4]E/E3/ (3EDD | 
E3/E/ E3/E/ | 
(3EDA, A,3/A,/ | 
D3/A,/ (3A,A,A, | 
A,3/F,/ A, z | 
D3/D/ (3DA,A, | 
A,3/A,/ (3A,A,A, | 
A,3/A,/ (3A,A,A, | 
(3A,A,A, (3A,A,A, | 
A,3/A,/ (3A,A,A, | 
z2D/A,/A, | 
A,3/A,/ A,3/A,/ | 
A,3/A,/ A, z | 
D3/A,/ !fermata!A,3/A,/ | 
A,2A,2 |]  



